X: 877
T: Scotland
C:Bill Monroe
B: jims roots
M:C|
L:1/8
Q: 1/4=100
K:A
V:1 
%Q:440
AB||"A"c2 Ac d2 cd | efed cBAB | c2 Ac d2 cd | ecBc A2 AB |
c2 Ac d2 cd | efed cBAB | c2 Ac d2 cd | ecBc A4 ||
|:"A"ea2 ba2 ef |=gfed (3cdc A2 | ea2 ba2 ef | =gfed "E"e4 |
"A"ea2 ba2 ef |=gfed cdAB | c2 Ac d2 cd |"E"ecBc "A"A4:|
|:"A"!slide![A,6E6]-[A,E]d | e2 de =c^c A2 | !slide![A,6E6]-[A,E]d |"E"ed=c^c"A"A4:|
"A"ea2 aa2aa | e2 cc cAAA | Aa2 aa =c'2^c' |a2 ea "E"e2e2 |
"A"aa2 aa =c'2^c' | a2 ec dc A2 | c2 AA d2 cd |"E"ed (3cdc "A"A2AA||
"A"c2AA d2AA | e2AA dcA2 | c2c2d2cd | ecdc A2AA |
c2AA d2AA | e2eA dcAA | c2AAd2AA | ecdc A4 ||
"A"a3b a2ef | faee BcA2 | ea2 ba2ef | =gfed "E"e4 |
"A"a3b a2ef | =gfed cBAB | c2Ac d2cd | "E"ecBc "A"A4 ||
|:"A"!slide![A,6E6]-[A,E]d | e2 de =c^c A2 | !slide![A,6E6]-[A,E]d |[1 "E"ed=c^c"A"A4:|[2 "E"ed=c^c"A"A2ab||
 "A"c'2bc'd'2c'd' | e'2c'2 (3bc'b ab | c'2bc' d'2c'd'| [1 e'c'bc' a3b:|[2  e'c'bc' a4||
"A"ea3 ba2e | =gf (3efe (3cdc A2 | ea3 ba2e | =gfed "E"e4 |
"A"ea3b a2e | =gfed =cBAB | c2Ac d2cd | "E"ecBc "A"A4 ||
|:"A"!slide![A,6E6]-[A,E]d | e2 de =c^c A2 | !slide![A,6E6]-[A,E]d |[1 "E"ed=c^c"A"A4:|[2 "E"ed=c^c"A"A3e||
|:"A"(3cdc Ae (3cdc ef | =gagf ee (3cdc | AA (3cdc A2 =gf | ed=c^c A3e:|
% abcbook-tune_id 6298c287d79075d7cc3a192d


% abcbook-boost 0
% abcbook-tablature 
% abcbook-transpose 
% abcbook-lastupdated 1654178440236
% abcbook-soundfonts 
% abcbook-repeats 1


